fs/draw_shape_20_filled.svg

<svg viewBox="0 0 20 20" fill="none" xmlns="http://www.w3.org/2000/svg" height="1em" width="1em">
  <path d="M3 6C3 4.34315 4.34315 3 6 3H14C15.6569 3 17 4.34315 17 6V9.00299C16.3099 9.03446 15.629 9.31368 15.102 9.84065L10.2726 14.6701C9.90463 15.038 9.63271 15.4896 9.47929 15.9849C9.30687 15.7927 9.08161 15.6277 8.79569 15.5127C7.81196 15.1168 6.75298 15.4135 6.04793 15.6664C5.90856 15.7164 5.77036 15.7697 5.63714 15.8231C5.25576 16.0054 4.91737 16.1346 4.62827 16.2261C4.19652 16.3629 3.77324 16.26 3.4667 15.9985C3.16828 15.7438 3.00008 15.3583 3.00007 14.9475L3.00006 14.0197C3.00002 14.0131 3 14.0066 3 14V6ZM10.9798 15.3772L15.8092 10.5478C16.5395 9.81741 17.7237 9.81741 18.454 10.5478C19.1843 11.2781 19.1843 12.4622 18.454 13.1926L13.6246 18.022C13.343 18.3036 12.9902 18.5033 12.6039 18.5999L11.3827 18.9052C10.2608 19.2334 8.58772 19.127 8.06929 18.7223C7.62024 18.3719 7.60177 17.8348 7.75301 17.4781C7.78681 17.3983 7.72743 17.2955 7.64168 17.3076C7.14671 17.3776 6.74112 17.5576 6.34124 17.7351C5.75754 17.9942 5.18602 18.2479 4.36648 18.146C3.65492 18.0576 3.25913 17.6872 3.04062 17.3208C2.91893 17.1167 3.18829 16.929 3.40083 17.0352C3.76857 17.2189 4.22982 17.3699 4.6169 17.2843C4.868 17.2288 5.194 17.0916 5.56001 16.9376C6.4446 16.5653 7.56294 16.0947 8.42254 16.4406C9.05914 16.6968 9.00634 17.422 8.82672 17.7703C8.79228 17.8371 8.81901 17.931 8.89227 17.9476C9.16411 18.0094 9.54486 18.0485 10.0036 18.0358C10.0078 17.9896 10.0156 17.9429 10.0274 17.8958L10.4018 16.3979C10.4984 16.0116 10.6982 15.6588 10.9798 15.3772Z" fill="#212121"/>
</svg>

<svg viewBox="0 0 20 20" fill="none" xmlns="http://www.w3.org/2000/svg" height="1em" width="1em">
  <path d="M3 6a3 3 0 0 1 3-3h8a3 3 0 0 1 3 3v3.003a2.86 2.86 0 0 0-1.898.838l-4.83 4.83c-.367.367-.64.819-.793 1.314a1.818 1.818 0 0 0-.683-.472c-.984-.396-2.043-.1-2.748.153-.14.05-.278.104-.41.157a7.81 7.81 0 0 1-1.01.403A1.202 1.202 0 0 1 3.467 16 1.374 1.374 0 0 1 3 14.947V6Zm7.98 9.377 4.83-4.83a1.87 1.87 0 1 1 2.644 2.646l-4.83 4.829a2.197 2.197 0 0 1-1.02.578l-1.221.305c-1.122.328-2.795.222-3.314-.183-.449-.35-.467-.887-.316-1.244.034-.08-.026-.183-.111-.17-.495.07-.9.25-1.3.427-.584.26-1.156.513-1.976.411-.711-.088-1.107-.459-1.325-.825-.122-.204.147-.392.36-.286.368.184.829.335 1.216.25.251-.056.577-.193.943-.347.885-.373 2.003-.843 2.863-.497.636.256.583.981.404 1.33-.035.066-.008.16.065.177a4.6 4.6 0 0 0 1.112.088.917.917 0 0 1 .023-.14l.375-1.498a2.18 2.18 0 0 1 .578-1.02Z" fill="#212121"/>
</svg>
